assets/images/buttons/fb.svg

<?xml version="1.0" encoding="UTF-8"?>
<svg width="60px" height="60px" viewBox="0 0 60 60" version="1.1" xmlns="http://www.w3.org/2000/svg" xmlns:xlink="http://www.w3.org/1999/xlink">
    <!-- Generator: Sketch 58 (84663) - https://sketch.com -->
    <title>fb-icon</title>
    <desc>Created with Sketch.</desc>
    <g id="fb-icon" stroke="none" stroke-width="1" fill="none" fill-rule="evenodd">
        <path d="M53.5714286,0 L6.42857143,0 C2.87816947,0 0,2.87816947 0,6.42857143 L0,53.5714286 C0,57.1218305 2.87816947,60 6.42857143,60 L24.8102679,60 L24.8102679,39.6013393 L16.3727679,39.6013393 L16.3727679,30 L24.8102679,30 L24.8102679,22.6821429 C24.8102679,14.3584821 29.765625,9.76071429 37.3553571,9.76071429 C40.9901786,9.76071429 44.7910714,10.4089286 44.7910714,10.4089286 L44.7910714,18.5785714 L40.603125,18.5785714 C36.4767857,18.5785714 35.1897321,21.1392857 35.1897321,23.765625 L35.1897321,30 L44.4013393,30 L42.928125,39.6013393 L35.1897321,39.6013393 L35.1897321,60 L53.5714286,60 C57.1218305,60 60,57.1218305 60,53.5714286 L60,6.42857143 C60,2.87816947 57.1218305,0 53.5714286,0 L53.5714286,0 Z" id="Path" fill="#FFFFFF" fill-rule="nonzero"></path>
    </g>
</svg>

<svg width="60" height="60" xmlns="http://www.w3.org/2000/svg"><path d="M53.571 0H6.43A6.429 6.429 0 000 6.429V53.57A6.429 6.429 0 006.429 60H24.81V39.601h-8.437V30h8.437v-7.318c0-8.324 4.956-12.921 12.545-12.921 3.635 0 7.436.648 7.436.648v8.17h-4.188c-4.126 0-5.413 2.56-5.413 5.187V30H44.4l-1.473 9.601H35.19V60H53.57A6.429 6.429 0 0060 53.571V6.43A6.429 6.429 0 0053.571 0z" fill="#FFF" fill-rule="nonzero"/></svg>
